X:1
T:Title
%%score ( 1 2 ) { 3 | 4 }
L:1/8
Q:1/4=104
M:4/4
K:Eb
V:1 treble nm="Grand Piano, Soprano"
V:2 treble 
V:3 bass nm="Choir Pad, Eternal King, LM, 1923"
V:4 bass 
V:1
 EF [EG]2 [FA]2 [GB]2 | E2 [EF]2 [DG]2 E2 | E-[E=A] [FB]2 [Fc]2 [Fd]2 | [Ee]2 [Gc]2 d-[Ed] [DB]2 | %4
w: By~Anthony~Johnson~Showalter,~1923 * * * *||||
 cB [EB]2 [FA]2 G2 | cB [EB]2 [FA]2 G2 | cB [Ee]2 [Ae]2 [Gf]2 | [GB][FA] [EG]2 [DF]2 E2- | E6 z2 |] %9
w: |||||
V:2
 x8 | x8 | .G2 z2 z4 | z4 .F2 z2 | D2 z2 z4 | D2 z2 z4 | D2 z2 z4 | x8 | x8 |] %9
V:3
 G,A,B,E DC B,2 | B,2 C2 B,A, G,2 | B,C B,2 =A,2 B,2 | B,2 B,2 =A,2 B,2 | B,2 B,2[K:treble] CD E2 | %5
 B,2 B,2 CD E2 | B,2 B,2 A,2 B,2 | C2 B,2 A,2 G,2- | G,6 z2 |] %9
V:4
 E,2 E,2 E,2 E,2 | G,,2 A,,2 B,,2 E,2 | E,2 D,2 C,2 B,,2 | G,2 E,2 F,2 B,,2 | =A,2 G,2 F,2 E,2 | %5
 A,2 G,2 F,2 E,2 | A,2 G,2 F,2 G,2 | A,2 B,,2 B,,2 E,2- | E,6 z2 |] %9

